assets/openwrt/original.svg

<svg viewBox="0 0 24 24" xmlns="http://www.w3.org/2000/svg" fill="#00B5E2"><path d="m12 0c-3.906 0-7.4465 1.5949-10.006 4.1543l1.6953 1.6953c2.1278-2.1278 5.069-3.4395 8.3105-3.4395 3.2416 0 6.1833 1.3122 8.3105 3.4395l1.6953-1.6953c-2.56-2.5594-6.0999-4.1543-10.006-4.1543zm0 4.3203c-2.7091 0-5.1685 1.1138-6.9473 2.8926l1.6953 1.6953c1.346-1.346 3.2079-2.1777 5.252-2.1777 2.0435 0 3.9053.83172 5.252 2.1777l1.6953-1.6953c-1.7782-1.7782-4.2381-2.8926-6.9473-2.8926zm-7.7285 3.7559c-1.3295 1.6792-2.1113 3.7906-2.1113 6.084 0 5.4189 4.4216 9.8398 9.8398 9.8398 5.4183 0 9.8398-4.4209 9.8398-9.8398 0-2.2934-.79833-4.4048-2.1113-6.084l-1.7129 1.7129c.8974 1.2298 1.4297 2.7427 1.4297 4.3711 0 4.1053-3.34 7.4473-7.4453 7.4473-4.1052 0-7.4473-3.342-7.4473-7.4473 0-1.6284.53174-3.1413 1.4297-4.3711zm7.7285.56641c-1.5128 0-2.8928.61633-3.9062 1.6133l1.6953 1.6953c1.2219-1.2195 3.2006-1.2195 4.4219 0l1.6953-1.6953c-1.0354-1.0361-2.4416-1.6176-3.9062-1.6133zm0 3.8887c-.8997 0-1.6289.72911-1.6289 1.6289 0 .8992.72921 1.6289 1.6289 1.6289.8998 0 1.6289-.72971 1.6289-1.6289-.0019-.8992-.72971-1.6277-1.6289-1.6289z"/></svg>

<svg xmlns="http://www.w3.org/2000/svg" fill="#00b5e2" viewBox="0 0 24 24"><path d="M12 0A14.12 14.12 0 0 0 1.994 4.154L3.689 5.85A11.72 11.72 0 0 1 12 2.41a11.72 11.72 0 0 1 8.311 3.44l1.696-1.696A14.12 14.12 0 0 0 12 0zm0 4.32a9.8 9.8 0 0 0-6.947 2.893l1.695 1.695A7.41 7.41 0 0 1 12 6.73c2.043 0 3.905.832 5.252 2.178l1.695-1.695A9.81 9.81 0 0 0 12 4.32M4.272 8.076A9.76 9.76 0 0 0 2.16 14.16C2.16 19.58 6.582 24 12 24s9.84-4.42 9.84-9.84a9.86 9.86 0 0 0-2.111-6.084L18.016 9.79a7.4 7.4 0 0 1 1.43 4.371c0 4.105-3.34 7.448-7.446 7.448s-7.447-3.342-7.447-7.448c0-1.628.531-3.141 1.43-4.37zM12 8.643a5.56 5.56 0 0 0-3.906 1.613l1.695 1.695a3.13 3.13 0 0 1 4.422 0l1.695-1.695A5.5 5.5 0 0 0 12 8.643m0 3.888a1.629 1.629 0 1 0 0 3.258 1.629 1.629 0 0 0 0-3.258"/></svg>
